imagens/Ouvidoria.svg

<svg xmlns="http://www.w3.org/2000/svg" xmlns:xlink="http://www.w3.org/1999/xlink" width="500" zoomAndPan="magnify" viewBox="0 0 375 374.999991" height="500" preserveAspectRatio="xMidYMid meet" version="1.0"><defs><clipPath id="225b64c5aa"><path d="M 187.5 0 C 83.945312 0 0 83.945312 0 187.5 C 0 291.054688 83.945312 375 187.5 375 C 291.054688 375 375 291.054688 375 187.5 C 375 83.945312 291.054688 0 187.5 0 Z M 187.5 0 " clip-rule="nonzero"/></clipPath><clipPath id="77c0113f93"><path d="M 84 78.214844 L 292 78.214844 L 292 178 L 84 178 Z M 84 78.214844 " clip-rule="nonzero"/></clipPath><clipPath id="93844f6a46"><path d="M 216 189 L 266 189 L 266 296.464844 L 216 296.464844 Z M 216 189 " clip-rule="nonzero"/></clipPath><clipPath id="5910f0eda0"><path d="M 109 189 L 159 189 L 159 296.464844 L 109 296.464844 Z M 109 189 " clip-rule="nonzero"/></clipPath></defs><g clip-path="url(#225b64c5aa)"><rect x="-37.5" width="450" fill="#e28100" y="-37.499999" height="449.999989" fill-opacity="1"/></g><path fill="#ffffff" d="M 291.726562 181.738281 L 285.472656 181.738281 C 285.964844 185.636719 286.230469 189.628906 286.230469 193.644531 C 286.230469 199.945312 285.410156 206.664062 283.71875 214.179688 L 275.695312 265.542969 C 295.398438 223.332031 292.75 189.722656 291.726562 181.738281 " fill-opacity="1" fill-rule="nonzero"/><g clip-path="url(#77c0113f93)"><path fill="#ffffff" d="M 284.773438 177.230469 L 291.363281 177.230469 C 290.121094 122.523438 244.15625 78.386719 187.792969 78.386719 C 131.429688 78.386719 85.46875 122.523438 84.230469 177.230469 L 90.808594 177.230469 C 98.855469 131.640625 140.183594 97.488281 187.792969 97.488281 C 235.378906 97.488281 276.707031 131.636719 284.773438 177.230469 " fill-opacity="1" fill-rule="nonzero"/></g><path fill="#ffffff" d="M 269.25 197.3125 L 244.964844 294.410156 L 268.144531 279.601562 C 268.429688 279.421875 268.671875 279.179688 268.859375 278.890625 C 269.070312 278.488281 269.144531 278.253906 269.175781 278.042969 L 279.140625 214.234375 L 269.25 197.3125 " fill-opacity="1" fill-rule="nonzero"/><g clip-path="url(#93844f6a46)"><path fill="#ffffff" d="M 252.476562 189.722656 C 251.253906 189.414062 250.019531 189.261719 248.796875 189.261719 C 246.074219 189.261719 243.394531 190.019531 241.011719 191.492188 C 237.554688 193.628906 235.167969 196.992188 234.296875 200.96875 L 217.089844 279.234375 C 215.933594 284.476562 218.914062 289.675781 224.015625 291.335938 L 239.816406 296.46875 L 265.675781 193.023438 L 252.476562 189.722656 " fill-opacity="1" fill-rule="nonzero"/></g><g clip-path="url(#5910f0eda0)"><path fill="#ffffff" d="M 141.042969 200.96875 C 140.167969 196.992188 137.785156 193.628906 134.324219 191.492188 C 130.875 189.355469 126.796875 188.726562 122.867188 189.722656 L 109.671875 193.027344 L 135.53125 296.46875 L 151.324219 291.335938 C 156.429688 289.675781 159.410156 284.476562 158.253906 279.238281 L 141.042969 200.96875 " fill-opacity="1" fill-rule="nonzero"/></g><path fill="#ffffff" d="M 96.203125 214.234375 L 106.3125 279.03125 C 106.34375 279.050781 106.378906 279.085938 106.417969 279.105469 L 130.359375 294.40625 L 106.085938 197.316406 L 96.203125 214.234375 " fill-opacity="1" fill-rule="nonzero"/><path fill="#ffffff" d="M 89.355469 193.644531 C 89.355469 189.628906 89.621094 185.636719 90.117188 181.738281 L 83.839844 181.738281 C 82.714844 189.773438 79.613281 224.125 99.863281 266.953125 L 91.621094 214.152344 C 90.121094 207.46875 89.355469 200.574219 89.355469 193.644531 " fill-opacity="1" fill-rule="nonzero"/></svg>

<svg xmlns="http://www.w3.org/2000/svg" width="500" height="500" version="1.0" viewBox="0 0 375 375"><defs><clipPath id="a"><path d="M187.5 0C83.945 0 0 83.945 0 187.5S83.945 375 187.5 375 375 291.055 375 187.5 291.055 0 187.5 0Zm0 0"/></clipPath><clipPath id="b"><path d="M84 78.215h208V178H84Zm0 0"/></clipPath><clipPath id="c"><path d="M216 189h50v107.465h-50Zm0 0"/></clipPath><clipPath id="d"><path d="M109 189h50v107.465h-50Zm0 0"/></clipPath></defs><g clip-path="url(#a)"><path fill="#e28100" d="M-37.5-37.5h450v450h-450z"/></g><path fill="#fff" d="M291.727 181.738h-6.254c.492 3.899.757 7.89.757 11.907 0 6.3-.82 13.02-2.511 20.535l-8.024 51.363c19.703-42.211 17.055-75.82 16.032-83.805"/><g clip-path="url(#b)"><path fill="#fff" d="M284.773 177.23h6.59c-1.242-54.707-47.207-98.843-103.57-98.843-56.363 0-102.324 44.136-103.563 98.843h6.579c8.046-45.59 49.375-79.742 96.984-79.742 47.586 0 88.914 34.149 96.98 79.742"/></g><path fill="#fff" d="m269.25 197.313-24.285 97.097 23.18-14.808c.285-.18.527-.422.714-.711.211-.403.286-.637.317-.848l9.965-63.809-9.891-16.922"/><g clip-path="url(#c)"><path fill="#fff" d="M252.477 189.723a14.767 14.767 0 0 0-11.465 1.77 14.763 14.763 0 0 0-6.715 9.476l-17.207 78.265a10.34 10.34 0 0 0 6.926 12.102l15.8 5.133 25.86-103.446-13.2-3.3"/></g><g clip-path="url(#d)"><path fill="#fff" d="M141.043 200.969c-.875-3.977-3.258-7.34-6.719-9.477a14.729 14.729 0 0 0-11.457-1.77l-13.195 3.305 25.86 103.442 15.792-5.133a10.336 10.336 0 0 0 6.93-12.098l-17.211-78.27"/></g><path fill="#fff" d="m96.203 214.234 10.11 64.797c.03.02.066.055.105.074l23.941 15.301-24.273-97.09-9.883 16.918M89.355 193.645a94.5 94.5 0 0 1 .762-11.907H83.84c-1.125 8.035-4.227 42.387 16.023 85.215l-8.242-52.8a93.766 93.766 0 0 1-2.266-20.508"/></svg>
